X: 37
M:4/4
L:1/8
K:G
sBAs|G E2 F EDB,C|DEDB, DEGA|"tr"sBAsBc dBGA|B A2 G AcBA|
"tr"gfge dged|BdAG E2 GA|BdAG EDB,D|E G2 A G2||

